X: 2120
T: The Spey In Spate
B: nick
B: to learn
M:4/4
R: reel
Q: 1/4=100
K:Dmajor
V:1 
(3A,B,C|D2FD A,DFA|dcBA ^GAFD|E2GE B,EGB|gecA GECA,|
 D2FD A,DFA|dDcD BDAf|gefd ecdB|AFGE DABc|
 d/d/dfd AdFA|DFAd fagf|e/e/ege BeGB|CEAc egfe|
 d/d/dfd AdFA|DFAd fagf|gefd ecdB|AFGE D4||
% abcbook-tune_id 63456274a51b4a43cd3bbb17


% abcbook-boost 0
% abcbook-tablature 
% abcbook-transpose 
% abcbook-lastupdated 1666007600492
% abcbook-soundfonts 
% abcbook-repeats 3


